X: 32770
T: Polwart On The Green
R: reel
M: 4/4
K: Dmajor
A2|F2 ED A2F2|A4 d3e|f2 ef gfed|{f}e6A2|
F2 ED A2F2|G3A B2 (AG)|A2f2 gfef|d6:|
|:A2|defg a2 T(gf)|efga g2 T(fe)|d2 (de) fefg|{f}e6A2|
F2 (ED) A2F2|G3A (BAB)G|A2d2 {f}e2 dc|{c}d6:|

